X: 42057
T: Waltz In The House
R: waltz
M: 3/4
K: Adorian
AG|:E2 A3A|A2 d3c|B3A B2|G6|A4 AA|A2 B2 d2|e3A e2|e4 ed|
e2 a3a|a2 b2 (3aba|g2 e2 g2|G3A B2|c3B c2|d2 B2 G2|A6|1 A4 AG:|2 A4 ed:|
|:e2 a3a|a2 b2 (3aba|g2 e2 g2|G3A B2|c3B c2|d3c d2|e3A e2|e4 ed|
e2 a3a|a2 b2 (3aba|g2 e2 g2|G3A B2|c3B c2|d2 B2 G2|A6|1 A4 ed:|2 A4||

